lib/preview_tmp/nrk-logo-nrk-tegnspraak-title-below.svg

<svg width="97" height="39" viewBox="0 0 97 39" fill="none" xmlns="http://www.w3.org/2000/svg">
<path d="M0 14.3333V0.334605H4.59339V14.3333H0ZM10.8428 2.56258L13.4844 14.3333H8.45737L5.30307 0.334605H8.12254C8.76907 0.326214 9.39641 0.554123 9.88691 0.975455C10.3782 1.37911 10.7158 1.93948 10.8428 2.56258ZM14.1744 14.3333V0.334605H18.7678V14.3333H14.1744ZM22.2372 5.65812C21.7422 5.66294 21.2552 5.53343 20.828 5.28346C20.4064 5.03981 20.0563 4.68962 19.8127 4.26803C19.5624 3.84072 19.4329 3.35355 19.4378 2.85837C19.4321 2.3662 19.5618 1.88194 19.8127 1.4585C20.0589 1.04149 20.4086 0.695109 20.828 0.452939C21.2553 0.203253 21.7423 0.073767 22.2372 0.0782812C22.7292 0.0729823 23.2133 0.202584 23.6369 0.452939C24.0521 0.697232 24.3981 1.04332 24.6424 1.4585C24.893 1.88206 25.0226 2.36624 25.0172 2.85837C25.0218 3.35352 24.8923 3.8406 24.6424 4.26803C24.4007 4.68777 24.0542 5.03766 23.6369 5.28346C23.2133 5.53431 22.7289 5.66394 22.2366 5.65812H22.2372ZM25.7269 14.3333V0.334605H30.3207V14.3333H25.7269ZM36.136 7.98461C36.1489 7.99819 36.2475 8.1592 36.4317 8.46765C36.6159 8.7761 36.8558 9.17046 37.1513 9.65067C37.447 10.1307 37.759 10.64 38.0874 11.1787C38.4157 11.7174 38.7247 12.2268 39.0143 12.7067C39.3028 13.1867 39.6313 13.7289 40 14.3333H34.9531C34.6375 13.8207 34.3515 13.3574 34.0952 12.9433C33.8389 12.5293 33.5665 12.0823 33.2778 11.6026C32.9884 11.1233 32.7024 10.6566 32.4196 10.2027C32.1368 9.74879 31.8938 9.35121 31.6905 9.0099C31.4863 8.66837 31.3449 8.43831 31.2663 8.31979C31.0713 8.02568 30.9559 7.68601 30.9315 7.33397C30.951 6.99609 31.0597 6.66947 31.2466 6.3873C31.3254 6.25585 31.47 6.0225 31.6803 5.68732C31.8906 5.35214 32.137 4.95456 32.4196 4.49451C32.7021 4.03446 32.9882 3.56454 33.2778 3.08477C33.5674 2.605 33.8398 2.15477 34.0952 1.73416C34.3519 1.31398 34.6379 0.84735 34.9531 0.334284H40L36.0962 6.70275C35.9754 6.89183 35.9073 7.10974 35.8991 7.33397C35.9121 7.56938 35.9942 7.7957 36.1353 7.98461H36.136Z" fill="white"/>
<path d="M0 22.052H4.52459V34.3415H6.59917V22.052H11.1043V20.3133H0V22.052Z" fill="white"/>
<path d="M20.6278 25.5393C20.2485 25.0477 19.7481 24.6631 19.1755 24.423C18.5394 24.1633 17.8571 24.0356 17.1701 24.0476C16.478 24.0358 15.7912 24.1705 15.1548 24.4427C14.5759 24.6962 14.0598 25.0739 13.6432 25.5492C13.2141 26.0485 12.8913 26.63 12.6945 27.2583C12.4694 27.9774 12.3595 28.7276 12.3689 29.481C12.3409 30.4331 12.5406 31.378 12.9514 32.2373C13.327 32.9819 13.9335 33.5849 14.6802 33.9562C15.5565 34.369 16.518 34.5687 17.4862 34.5391C17.952 34.5431 18.4174 34.5134 18.8788 34.4502C19.2646 34.3947 19.6447 34.3054 20.0149 34.1834C20.3821 34.0603 20.7389 33.9084 21.0822 33.729L21.2205 32.2076C20.97 32.2998 20.7163 32.3921 20.4595 32.4843C20.2026 32.5765 19.9359 32.6588 19.6593 32.7312C19.3802 32.8043 19.0963 32.8572 18.8097 32.8893C18.5212 32.9222 18.231 32.9387 17.9406 32.9387C17.4218 32.9471 16.904 32.8907 16.3992 32.7708C15.9919 32.6735 15.6153 32.4766 15.3029 32.1978C14.9871 31.8972 14.7555 31.5191 14.6312 31.1012C14.502 30.678 14.4296 30.2395 14.4158 29.7972H21.556C21.6532 28.98 21.6165 28.1525 21.4474 27.3472C21.3085 26.6923 21.0288 26.0754 20.6278 25.5393ZM15.6487 26.0135C16.1122 25.7321 16.6475 25.5914 17.1895 25.6085C17.7322 25.5813 18.2682 25.738 18.7109 26.053C19.1045 26.367 19.3853 26.8004 19.5111 27.2879C19.6096 27.6484 19.6581 28.0207 19.6553 28.3943H14.4589C14.4958 28.0004 14.58 27.6123 14.7099 27.2385C14.8786 26.7375 15.2088 26.3067 15.6487 26.0135Z" fill="white"/>
<path d="M30.3583 24.3044C30.0564 24.2218 29.7495 24.1591 29.4395 24.1167C29.0858 24.0692 28.7292 24.0461 28.3722 24.0476C27.7277 24.0449 27.0892 24.1726 26.4952 24.423C25.9 24.6749 25.3597 25.0407 24.9047 25.4998C24.4197 25.9948 24.0459 26.5876 23.8081 27.2385C23.5325 28.0014 23.3986 28.8083 23.413 29.6193C23.3913 30.5116 23.5631 31.398 23.9165 32.2175C24.2262 32.9184 24.7391 33.5103 25.3888 33.9167C26.0996 34.3361 26.9148 34.545 27.7396 34.5193C28.4643 34.5168 29.1819 34.3759 29.8538 34.1044C30.2553 33.9408 30.6339 33.7258 30.98 33.4646V34.0056C30.9881 34.4508 30.9248 34.8944 30.7926 35.3195C30.6785 35.6762 30.4823 36.001 30.2196 36.2679C29.9365 36.5398 29.5901 36.7367 29.2117 36.8409C28.7195 36.9761 28.2104 37.0393 27.7001 37.0286C27.2942 37.028 26.8887 37.0049 26.4853 36.9595C26.0617 36.9116 25.6423 36.8323 25.2304 36.7224C24.8062 36.6094 24.3904 36.4674 23.9856 36.2976L24.203 38.0363C24.5663 38.1837 24.9394 38.3058 25.3196 38.4018C25.7194 38.5028 26.1252 38.5786 26.5344 38.629C26.9671 38.6822 27.4026 38.7086 27.8385 38.7081C28.8109 38.7385 29.7774 38.5459 30.6638 38.145C31.3836 37.8098 31.986 37.266 32.3927 36.5841C32.7906 35.8832 32.9921 35.088 32.9759 34.2823V24.0476L31.0432 24.5448C30.8202 24.4504 30.5914 24.3701 30.3583 24.3044ZM30.7235 32.2175C30.4787 32.3598 30.2246 32.4852 29.9628 32.5929C29.7322 32.6877 29.4943 32.7637 29.2515 32.8202C29.015 32.8737 28.7732 32.9002 28.5307 32.8992C27.9371 32.9206 27.3482 32.7879 26.8212 32.5139C26.3622 32.2518 26.0067 31.8404 25.8139 31.3482C25.5757 30.7073 25.465 30.0261 25.4879 29.3427C25.479 28.7974 25.5556 28.2541 25.7148 27.7325C25.8442 27.3037 26.067 26.909 26.3671 26.5766C26.6593 26.2676 27.017 26.0279 27.414 25.8752C27.865 25.7043 28.3444 25.6205 28.8267 25.6282C29.138 25.628 29.4488 25.6544 29.7556 25.7072C30.0698 25.7627 30.38 25.8386 30.6843 25.9345C30.7811 25.9648 30.8818 26.0049 30.9806 26.0418V32.0654C30.8937 32.1174 30.8051 32.1708 30.7235 32.2175Z" fill="white"/>
<path d="M43.7835 24.4625C43.1965 24.166 42.5439 24.0232 41.8868 24.0476C41.3133 24.0487 40.7434 24.1387 40.1974 24.3143C39.6348 24.4935 39.0996 24.7495 38.6069 25.075C38.4163 25.2005 38.2328 25.3384 38.0537 25.48V24.0673L36.0384 24.3637V34.3415H38.0537V26.8374C38.2488 26.7232 38.45 26.6196 38.6563 26.5272C38.9338 26.4043 39.2174 26.2955 39.5059 26.2012C39.7834 26.1105 40.0674 26.0412 40.3555 25.9937C40.6265 25.9486 40.9007 25.9255 41.1755 25.9246C41.4979 25.9171 41.8191 25.9673 42.1238 26.0728C42.3753 26.1634 42.5997 26.3163 42.7759 26.5173C42.9573 26.7353 43.0858 26.9922 43.1513 27.2681C43.2355 27.6174 43.2753 27.9759 43.2698 28.3351V34.3415H45.2851V27.9202C45.3114 27.1711 45.1837 26.4246 44.9097 25.727C44.6866 25.1912 44.29 24.7459 43.7835 24.4625Z" fill="white"/>
<path d="M54.5118 29.7972C54.3095 29.5828 54.0765 29.3997 53.8203 29.2538C53.5551 29.102 53.2773 28.9731 52.9901 28.8685C52.7794 28.8027 52.5719 28.7335 52.3678 28.6611C52.1636 28.5886 51.9594 28.5228 51.7553 28.4635C51.5511 28.4042 51.3535 28.3417 51.1625 28.2758C50.9834 28.2148 50.8085 28.1422 50.6389 28.0584C50.4765 27.9722 50.3212 27.8731 50.1746 27.7621C50.0393 27.6601 49.9253 27.5325 49.839 27.3867C49.7518 27.2369 49.7073 27.066 49.7103 26.8927C49.705 26.7022 49.753 26.514 49.8489 26.3494C49.952 26.1876 50.0949 26.055 50.2638 25.9641C50.4705 25.8505 50.6939 25.7705 50.9257 25.727C51.2154 25.6714 51.51 25.6449 51.805 25.648C51.9495 25.648 52.1076 25.6549 52.2792 25.6677C52.4507 25.6806 52.6378 25.7043 52.8423 25.7369C53.0468 25.7695 53.2503 25.813 53.4544 25.8653C53.6586 25.9177 53.8661 25.9773 54.0772 26.0431C54.2725 26.1032 54.4638 26.1758 54.6498 26.2605L54.7884 24.6601C54.5379 24.5547 54.291 24.4625 54.0475 24.3835C53.8042 24.3046 53.5569 24.2386 53.3066 24.1859C53.0621 24.1341 52.8147 24.0978 52.5656 24.0772C52.3217 24.0575 52.0814 24.0476 51.8445 24.0476C51.2987 24.042 50.7544 24.105 50.2243 24.2353C49.771 24.3454 49.3399 24.5325 48.9499 24.7885C48.5963 25.0223 48.3074 25.3418 48.1102 25.7171C47.9037 26.1307 47.8019 26.5887 47.8139 27.0508C47.8078 27.3836 47.8614 27.7149 47.9722 28.0288C48.0658 28.2923 48.2064 28.5366 48.3872 28.75C48.5628 28.9516 48.7656 29.1278 48.9898 29.2736C49.2231 29.4267 49.4713 29.5558 49.7307 29.6588C49.8754 29.7115 50.0268 29.7642 50.1851 29.8169C50.3434 29.8696 50.4982 29.919 50.6495 29.9651C50.8006 30.0115 50.9488 30.0573 51.0937 30.1034C51.2386 30.1495 51.3802 30.1956 51.5185 30.2417C51.6568 30.2878 51.7918 30.3306 51.9238 30.3701C52.1005 30.4328 52.2721 30.5087 52.4372 30.5974C52.5822 30.6741 52.7182 30.7669 52.8426 30.874C52.9519 30.9695 53.0394 31.0874 53.0991 31.2197C53.1597 31.3565 53.1902 31.5048 53.1884 31.6544C53.1954 31.8006 53.1698 31.9465 53.1133 32.0815C53.0569 32.2165 52.971 32.3372 52.862 32.4349C52.6175 32.6393 52.3252 32.7786 52.0124 32.8399C51.646 32.9208 51.2717 32.9606 50.8964 32.9584C50.6618 32.9568 50.4275 32.9403 50.195 32.909C49.9382 32.8766 49.6681 32.8305 49.3849 32.7707C49.1017 32.711 48.8119 32.6386 48.5153 32.5534C48.2191 32.468 47.9196 32.3725 47.6166 32.2669L47.6956 33.9464C48.0377 34.0649 48.3505 34.1604 48.6341 34.2328C48.9178 34.3053 49.1878 34.3679 49.4442 34.4205C49.6917 34.4719 49.9427 34.5049 50.195 34.5193C50.4385 34.5325 50.6855 34.5391 50.9359 34.5391C51.4869 34.5419 52.0366 34.4856 52.5755 34.3711C53.05 34.2747 53.5044 34.0976 53.9191 33.8476C54.2928 33.6194 54.6024 33.2998 54.8184 32.9189C55.0446 32.5009 55.1569 32.0307 55.1441 31.5556C55.1524 31.2089 55.0954 30.8638 54.9762 30.5381C54.8701 30.2638 54.7125 30.0123 54.5118 29.7972Z" fill="white"/>
<path d="M65.1318 24.6699C64.4227 24.2358 63.6017 24.0193 62.7707 24.0476C62.2775 24.05 61.7864 24.113 61.3086 24.2353C60.7921 24.3665 60.2942 24.5623 59.8268 24.8181C59.7339 24.8685 59.642 24.9245 59.5501 24.9811V24.0673L57.5348 24.3835V38.4907H59.5501V34.0672C59.5637 34.0728 59.5762 34.0791 59.5897 34.0846C59.9547 34.2363 60.3358 34.3457 60.7257 34.4107C61.1861 34.4866 61.6521 34.5229 62.1187 34.5193C63.0083 34.5346 63.8854 34.3093 64.6576 33.8673C65.4157 33.4178 66.032 32.7639 66.4358 31.9804C66.9025 31.0463 67.1299 30.011 67.0977 28.9673C67.1161 28.0849 66.9444 27.2089 66.5942 26.3988C66.2849 25.6928 65.7767 25.0921 65.1318 24.6699ZM64.6082 31.279C64.3709 31.8038 63.973 32.2396 63.4721 32.5238C62.9152 32.8154 62.2925 32.9583 61.6642 32.9387C61.3632 32.9388 61.0627 32.9157 60.7653 32.8695C60.4532 32.8197 60.1458 32.7437 59.8465 32.6423C59.7516 32.6094 59.6489 32.5718 59.5501 32.5356V26.3003C59.5765 26.2881 59.6032 26.2723 59.6292 26.2605C59.9185 26.1287 60.1885 26.0168 60.4392 25.9246C60.6762 25.8361 60.921 25.77 61.1703 25.727C61.3922 25.6888 61.6169 25.669 61.8421 25.6677C62.4512 25.6475 63.0557 25.78 63.6005 26.053C64.077 26.3124 64.4501 26.7273 64.6576 27.2286C64.909 27.8698 65.0267 28.5556 65.0037 29.2439C65.0246 29.9432 64.8895 30.6384 64.6082 31.279Z" fill="white"/>
<path d="M73.6765 24.1951C73.307 24.2941 72.9543 24.4473 72.6297 24.6495C72.2925 24.8599 71.9807 25.1085 71.7007 25.3905C71.6543 25.4369 71.6088 25.4892 71.5627 25.5383V24.0667L69.547 24.363V34.3409H71.5627V26.8763C71.7125 26.7717 71.8674 26.6747 72.027 26.5858C72.2247 26.477 72.4293 26.3813 72.6395 26.2993C72.8435 26.2203 73.0509 26.1511 73.2619 26.0919C73.4786 26.0315 73.6999 25.9886 73.9235 25.9634C74.163 25.9368 74.4043 25.9302 74.645 25.9437L74.8821 24.0864C74.477 24.0573 74.0698 24.094 73.6765 24.1951Z" fill="white"/>
<path d="M85.2748 33.0967C85.1304 33.11 84.9849 33.0882 84.8508 33.0331C84.7166 32.9781 84.5977 32.8915 84.5042 32.7806C84.321 32.464 84.2448 32.0968 84.2869 31.7335L84.3264 27.6633C84.3308 27.2366 84.2776 26.8113 84.1683 26.3988C84.0724 26.037 83.9117 25.6956 83.6942 25.3911C83.4744 25.0933 83.1952 24.8443 82.8742 24.6601C82.5013 24.4484 82.0982 24.2952 81.6788 24.2056C81.1661 24.0948 80.6425 24.0418 80.118 24.0476C79.7018 24.0474 79.286 24.0738 78.8732 24.1266C78.4831 24.1757 78.0969 24.2516 77.7173 24.3538C77.3653 24.4493 77.019 24.5647 76.68 24.6996L76.443 26.379C76.7723 26.2605 77.0851 26.1617 77.3815 26.0826C77.6778 26.0036 77.9643 25.9378 78.2409 25.8851C78.512 25.8333 78.7857 25.797 79.0609 25.7764C79.3307 25.7566 79.5974 25.7467 79.8611 25.7467C80.264 25.7383 80.6662 25.7848 81.0565 25.8851C81.3412 25.9563 81.603 26.0992 81.8171 26.3C82.0077 26.4954 82.144 26.7371 82.2123 27.0014C82.2966 27.3271 82.3364 27.6628 82.3309 27.9992L82.3286 28.4951L80.0192 28.6512C79.2292 28.6732 78.451 28.8476 77.7272 29.1649C77.1856 29.4019 76.718 29.7807 76.3738 30.2615C76.0818 30.6893 75.9267 31.1957 75.9292 31.7137C75.9255 32.1997 76.0445 32.6788 76.275 33.1066C76.5168 33.5461 76.8804 33.9063 77.3222 34.1439C77.8612 34.4243 78.4636 34.5604 79.0708 34.5391C79.6397 34.5522 80.206 34.4584 80.7403 34.2625C81.2023 34.0816 81.6249 33.8132 81.9851 33.4722C82.1217 33.3411 82.2515 33.2029 82.3737 33.0582C82.4121 33.2628 82.4844 33.4594 82.5877 33.6401C82.7638 33.9426 83.0346 34.1786 83.3583 34.3119C83.716 34.4556 84.099 34.5261 84.4845 34.5193C84.603 34.5193 84.7183 34.516 84.8302 34.5095C84.9402 34.5028 85.0493 34.4863 85.1562 34.4601C85.2616 34.4334 85.3568 34.4107 85.4427 34.3909C85.5201 34.3736 85.5961 34.3505 85.67 34.3218L85.8873 32.998C85.7783 33.0354 85.6657 33.0619 85.5514 33.077C85.4597 33.0892 85.3673 33.0958 85.2748 33.0967ZM81.9851 32.2076C81.7709 32.3771 81.5391 32.5228 81.2935 32.6423C81.0491 32.7611 80.7901 32.8474 80.5233 32.8992C80.2465 32.9525 79.9652 32.9789 79.6833 32.9782C79.3613 32.9874 79.0411 32.9267 78.7448 32.8004C78.5037 32.6957 78.3004 32.5199 78.1619 32.2965C78.025 32.0597 77.9566 31.7895 77.9643 31.5161C77.9452 31.1867 78.0356 30.8602 78.2212 30.5875C78.4363 30.3364 78.7278 30.1629 79.051 30.0935C79.5558 29.9746 80.0738 29.9214 80.5921 29.9355H82.3223L82.3134 31.8965C82.2131 32.0094 82.1033 32.1135 81.9851 32.2076Z" fill="white"/>
<path d="M78.9621 22.4669C79.3354 22.6435 79.7445 22.7314 80.1575 22.7238C80.581 22.7321 81.0007 22.6407 81.3824 22.457C81.7266 22.2896 82.0174 22.0296 82.2222 21.7062C82.4332 21.3584 82.5395 20.9571 82.5284 20.5504C82.5411 20.2554 82.4893 19.9611 82.3767 19.6882C82.2641 19.4152 82.0934 19.17 81.8764 18.9697C81.4133 18.5642 80.8121 18.352 80.197 18.377C79.7854 18.3723 79.3776 18.4566 79.0016 18.624C78.6485 18.7811 78.3496 19.0388 78.1421 19.3649C77.9222 19.7275 77.8123 20.1463 77.826 20.5701C77.8122 20.9803 77.9187 21.3855 78.1322 21.7359C78.3359 22.0516 78.6232 22.3047 78.9621 22.4669ZM79.2782 19.6218C79.403 19.5112 79.5484 19.4264 79.7061 19.3721C79.8637 19.3179 80.0306 19.2953 80.197 19.3056C80.4419 19.2946 80.685 19.3528 80.8984 19.4736C81.071 19.5797 81.2084 19.7343 81.2935 19.9181C81.3821 20.1169 81.426 20.3328 81.422 20.5504C81.4259 20.7691 81.3785 20.9856 81.2836 21.1826C81.1944 21.3643 81.0535 21.5155 80.8786 21.6173C80.6632 21.7319 80.4209 21.7864 80.1772 21.7754C79.9455 21.7822 79.7155 21.7349 79.5054 21.6371C79.3246 21.5491 79.1785 21.403 79.0905 21.2222C78.9928 21.012 78.9454 20.782 78.9522 20.5504C78.9401 20.3815 78.9628 20.212 79.0188 20.0522C79.0749 19.8925 79.1632 19.746 79.2782 19.6218Z" fill="white"/>
<path d="M93.8495 34.3415H96.4576L91.6649 28.941L96.3587 24.2649H93.889L90.5081 27.9794H89.7793V19.4242L87.764 19.7205V34.3415H89.7793V29.5008H89.8122L93.8495 34.3415Z" fill="white"/>
</svg>

<svg xmlns="http://www.w3.org/2000/svg" viewBox="0 0 97 39"><path fill="#fff" d="M0 14.333V.335h4.593v13.998H0Zm10.843-11.77 2.641 11.77H8.457L5.303.335h2.82a2.655 2.655 0 0 1 1.764.64c.491.404.829.964.956 1.588Zm3.331 11.77V.335h4.594v13.998h-4.594Zm8.063-8.675a2.738 2.738 0 0 1-1.409-.375 2.778 2.778 0 0 1-1.015-1.015 2.735 2.735 0 0 1-.375-1.41 2.685 2.685 0 0 1 .375-1.4A2.812 2.812 0 0 1 23.637.454c.415.244.761.59 1.005 1.005.251.424.38.908.375 1.4.005.496-.125.983-.375 1.41a2.8 2.8 0 0 1-1.005 1.015c-.424.251-.908.38-1.4.375Zm3.49 8.675V.335h4.594v13.998h-4.594Zm10.409-6.348c.013.013.111.174.296.483.184.308.424.702.72 1.183a386.846 386.846 0 0 1 1.862 3.056c.289.48.617 1.022.986 1.626h-5.047l-.858-1.39c-.256-.414-.529-.86-.817-1.34-.29-.48-.576-.946-.858-1.4a71.148 71.148 0 0 1-.73-1.193 21.112 21.112 0 0 0-.424-.69 2.04 2.04 0 0 1-.334-.986c.019-.338.128-.665.315-.947.078-.131.223-.364.433-.7a216.7 216.7 0 0 0 1.598-2.603l.817-1.35.858-1.4H40l-3.904 6.369c-.12.189-.189.407-.197.631.013.235.095.462.236.65h.001ZM0 22.052h4.525v12.29h2.074v-12.29h4.505v-1.739H0v1.739ZM20.628 25.54a3.585 3.585 0 0 0-1.453-1.117 5.071 5.071 0 0 0-2.005-.375 4.912 4.912 0 0 0-2.015.395 4.308 4.308 0 0 0-1.512 1.106c-.429.5-.752 1.081-.949 1.71a7.142 7.142 0 0 0-.325 2.222 5.983 5.983 0 0 0 .582 2.756 3.862 3.862 0 0 0 1.73 1.72 6.144 6.144 0 0 0 2.805.582 9.65 9.65 0 0 0 1.393-.089 6.659 6.659 0 0 0 1.136-.267 7.345 7.345 0 0 0 1.067-.454l.139-1.521c-.251.092-.505.184-.762.276a9.457 9.457 0 0 1-.8.247 5.98 5.98 0 0 1-.85.158c-.288.033-.578.05-.868.05a6.233 6.233 0 0 1-1.542-.168 2.529 2.529 0 0 1-1.096-.573 2.497 2.497 0 0 1-.672-1.097 5 5 0 0 1-.215-1.304h7.14a7.57 7.57 0 0 0-.109-2.45 4.618 4.618 0 0 0-.82-1.808Zm-4.98.474a2.799 2.799 0 0 1 1.541-.405 2.416 2.416 0 0 1 1.522.444c.394.314.674.747.8 1.235.099.36.147.733.144 1.106H14.46c.037-.394.121-.782.25-1.155.17-.502.5-.932.94-1.226ZM30.358 24.304a7.156 7.156 0 0 0-.919-.187 7.773 7.773 0 0 0-1.067-.07 4.78 4.78 0 0 0-1.877.376 4.962 4.962 0 0 0-1.59 1.077 4.874 4.874 0 0 0-1.097 1.738 6.66 6.66 0 0 0-.395 2.381c-.022.893.15 1.779.503 2.599.31.7.823 1.292 1.473 1.699.71.42 1.526.628 2.35.602a5.696 5.696 0 0 0 2.115-.415c.401-.163.78-.378 1.126-.64v.542a4.17 4.17 0 0 1-.187 1.313 2.39 2.39 0 0 1-.573.949 2.36 2.36 0 0 1-1.008.573 5.288 5.288 0 0 1-1.512.188c-.406-.001-.811-.024-1.215-.07a8.629 8.629 0 0 1-1.255-.237 9.619 9.619 0 0 1-1.244-.424l.217 1.738c.363.148.736.27 1.117.366.4.1.805.177 1.214.227.433.053.869.08 1.305.08a6.373 6.373 0 0 0 2.825-.564 3.959 3.959 0 0 0 1.729-1.56c.398-.702.6-1.497.583-2.303V24.048l-1.933.497a5.778 5.778 0 0 0-.685-.24Zm.366 7.914a6.23 6.23 0 0 1-.761.375c-.23.095-.469.17-.712.227-.236.054-.478.08-.72.08a3.437 3.437 0 0 1-1.71-.386 2.314 2.314 0 0 1-1.007-1.166 5.252 5.252 0 0 1-.326-2.005 5.224 5.224 0 0 1 .227-1.61c.13-.43.352-.824.652-1.156.292-.31.65-.55 1.047-.702.451-.17.93-.255 1.413-.247.311 0 .622.026.929.08.314.055.624.13.928.227.097.03.198.07.297.107v6.023c-.087.052-.176.106-.258.153ZM43.783 24.462a3.887 3.887 0 0 0-1.896-.414 5.553 5.553 0 0 0-1.69.266 6.42 6.42 0 0 0-1.59.761c-.19.126-.374.263-.553.405v-1.413l-2.016.297v9.978h2.016v-7.505c.195-.114.396-.217.602-.31.278-.123.561-.232.85-.326.277-.09.561-.16.85-.207.27-.045.545-.069.82-.07.322-.007.643.043.948.149.251.09.476.243.652.444.181.218.31.475.375.751.084.35.124.708.119 1.067v6.007h2.015V27.92a5.474 5.474 0 0 0-.375-2.193 2.59 2.59 0 0 0-1.127-1.265ZM54.512 29.797a2.974 2.974 0 0 0-.692-.543 5.372 5.372 0 0 0-.83-.386c-.21-.065-.418-.134-.622-.207a11.02 11.02 0 0 0-.613-.198c-.204-.059-.402-.121-.593-.187a4.342 4.342 0 0 1-.523-.218 3.444 3.444 0 0 1-.464-.296 1.298 1.298 0 0 1-.336-.375.95.95 0 0 1-.129-.494c-.005-.19.043-.379.139-.544.103-.161.246-.294.415-.385.206-.113.43-.194.662-.237a4.42 4.42 0 0 1 .879-.079 6.427 6.427 0 0 1 1.037.089c.205.033.408.076.612.128.205.053.412.112.623.178.196.06.387.133.573.218l.138-1.6a9.358 9.358 0 0 0-.74-.277 7.232 7.232 0 0 0-.741-.198 5.934 5.934 0 0 0-.741-.109 8.954 8.954 0 0 0-.722-.03 6.508 6.508 0 0 0-1.62.188c-.453.11-.884.297-1.274.553a2.517 2.517 0 0 0-.84.93 2.822 2.822 0 0 0-.296 1.333c-.006.333.047.664.158.978.094.263.234.508.415.721.176.202.379.378.603.524.233.153.481.282.74.385a17.259 17.259 0 0 0 .92.306 46.344 46.344 0 0 1 .869.277c.138.046.273.089.405.128.176.063.348.139.513.227.145.077.281.17.406.277a1.012 1.012 0 0 1 .345.78.984.984 0 0 1-.326.78 1.892 1.892 0 0 1-.85.406c-.366.08-.74.12-1.116.118a5.54 5.54 0 0 1-.701-.049 9.973 9.973 0 0 1-.81-.138c-.283-.06-.573-.132-.87-.218-.296-.085-.595-.18-.898-.286l.079 1.68c.342.118.654.213.938.286.284.072.554.135.81.188.248.05.499.084.751.098.243.014.49.02.74.02a7.7 7.7 0 0 0 1.64-.168 4.236 4.236 0 0 0 1.344-.523c.374-.229.683-.548.9-.93.226-.417.338-.887.325-1.362a2.768 2.768 0 0 0-.168-1.018 2.305 2.305 0 0 0-.464-.74ZM65.132 24.67a4.246 4.246 0 0 0-2.361-.622 6.015 6.015 0 0 0-1.462.187 6.336 6.336 0 0 0-1.759.746v-.914l-2.015.317V38.49h2.015v-4.424l.04.018c.365.151.746.26 1.136.326.46.076.926.112 1.393.108a4.94 4.94 0 0 0 2.539-.652 4.693 4.693 0 0 0 1.778-1.887c.466-.934.694-1.969.662-3.013a6.15 6.15 0 0 0-.504-2.568 3.971 3.971 0 0 0-1.462-1.73Zm-.524 6.609a2.72 2.72 0 0 1-1.136 1.245 3.652 3.652 0 0 1-1.808.415 5.627 5.627 0 0 1-1.818-.296 18.54 18.54 0 0 1-.296-.107V26.3c.027-.012.053-.028.08-.04.288-.131.558-.243.81-.335a4.065 4.065 0 0 1 1.402-.257c.61-.02 1.214.112 1.758.385.477.26.85.674 1.058 1.176.251.64.369 1.327.346 2.015.02.7-.115 1.394-.396 2.035ZM73.677 24.195c-.37.1-.723.252-1.047.454-.337.21-.65.46-.93.741-.046.047-.091.1-.137.148v-1.471l-2.016.296v9.978h2.016v-7.465a5.16 5.16 0 0 1 1.077-.577c.204-.079.41-.148.622-.207a4.228 4.228 0 0 1 1.383-.148l.237-1.858a3.76 3.76 0 0 0-1.206.11ZM85.275 33.097a.899.899 0 0 1-.77-.316 1.7 1.7 0 0 1-.218-1.047l.04-4.07a4.746 4.746 0 0 0-.159-1.265 3.1 3.1 0 0 0-.474-1.008 2.673 2.673 0 0 0-.82-.73 4.197 4.197 0 0 0-1.195-.455 7.022 7.022 0 0 0-1.561-.158c-.416 0-.832.026-1.245.079-.39.049-.776.125-1.156.227-.352.095-.698.21-1.037.346l-.237 1.679a11.665 11.665 0 0 1 1.798-.494c.271-.052.545-.088.82-.109.27-.02.536-.03.8-.03.403-.008.805.039 1.195.14.285.07.547.213.761.414.19.195.327.437.395.701.085.326.124.662.119.998l-.002.496-2.31.156a6.134 6.134 0 0 0-2.292.514 3.283 3.283 0 0 0-1.353 1.097 2.554 2.554 0 0 0-.445 1.452 2.89 2.89 0 0 0 .346 1.393c.242.44.605.8 1.047 1.037.54.28 1.142.416 1.749.395a4.546 4.546 0 0 0 1.67-.276c.461-.181.884-.45 1.244-.79a5.43 5.43 0 0 0 .389-.415c.038.205.11.401.214.582.176.303.447.539.77.672.358.144.741.214 1.126.207.119 0 .234-.003.346-.01.11-.006.22-.023.326-.049.106-.027.2-.05.287-.07a1.58 1.58 0 0 0 .227-.068l.217-1.324a1.736 1.736 0 0 1-.336.079 2.265 2.265 0 0 1-.276.02Zm-3.29-.89c-.214.17-.446.316-.692.435a3.124 3.124 0 0 1-.77.257c-.276.053-.558.08-.84.08a2.231 2.231 0 0 1-.938-.179 1.29 1.29 0 0 1-.583-.503 1.476 1.476 0 0 1-.198-.78c-.019-.33.072-.657.257-.93a1.51 1.51 0 0 1 .83-.494 6.01 6.01 0 0 1 1.541-.157h1.73l-.009 1.96c-.1.113-.21.218-.328.312ZM78.962 22.467a2.68 2.68 0 0 0 1.195.257c.424.008.844-.083 1.225-.267.345-.167.635-.427.84-.75.211-.349.318-.75.306-1.157a2.032 2.032 0 0 0-.652-1.58 2.401 2.401 0 0 0-1.679-.593c-.412-.005-.82.08-1.195.247a1.966 1.966 0 0 0-.86.74c-.22.363-.33.782-.316 1.206-.014.41.093.816.306 1.166.204.316.491.569.83.73Zm.316-2.845a1.267 1.267 0 0 1 .919-.316c.245-.011.488.047.701.168.173.106.31.26.395.444.09.199.133.415.129.632a1.4 1.4 0 0 1-.138.633c-.09.181-.23.332-.405.434-.216.115-.458.17-.702.158a1.488 1.488 0 0 1-.672-.138.9.9 0 0 1-.414-.415 1.49 1.49 0 0 1-.139-.672 1.239 1.239 0 0 1 .326-.928ZM93.85 34.342h2.608l-4.793-5.401 4.694-4.676h-2.47l-3.38 3.714h-.73v-8.555l-2.015.297v14.62h2.015v-4.84h.033l4.038 4.84Z"/></svg>
